categories/48/applications-haskell.svg

<?xml version="1.0" encoding="UTF-8" standalone="no"?>
<!-- Created with Inkscape (http://www.inkscape.org/) -->
<svg id="svg2" xmlns="http://www.w3.org/2000/svg" height="48" width="48" version="1.0" xmlns:xlink="http://www.w3.org/1999/xlink">
 <defs id="defs4">
  <linearGradient id="linearGradient4222-4">
   <stop id="stop4224-0" style="stop-color:#fff" offset="0"/>
   <stop id="stop4226-5" style="stop-color:#fff;stop-opacity:0" offset="1"/>
  </linearGradient>
  <radialGradient id="radialGradient2939" gradientUnits="userSpaceOnUse" cy="35.127" cx="23.071" gradientTransform="matrix(2.0833 .012268 -.018708 .20710 2.3491 12.233)" r="10.319">
   <stop id="stop3763" style="stop-opacity:.39216" offset="0"/>
   <stop id="stop3765" style="stop-opacity:.31373" offset=".67457"/>
   <stop id="stop3767" style="stop-opacity:0" offset="1"/>
  </radialGradient>
  <linearGradient id="linearGradient3242-187-536">
   <stop id="stop2780" style="stop-color:#6396cd" offset="0"/>
   <stop id="stop2782" style="stop-color:#3b7caf" offset=".66094"/>
   <stop id="stop2784" style="stop-color:#194c70" offset="1"/>
  </linearGradient>
  <linearGradient id="linearGradient2490-182-124">
   <stop id="stop2788" style="stop-color:#1f4b6a" offset="0"/>
   <stop id="stop2790" style="stop-color:#4083c2" offset="1"/>
  </linearGradient>
  <linearGradient id="linearGradient3691" y2="43.5" xlink:href="#linearGradient4222-4" gradientUnits="userSpaceOnUse" x2="59" gradientTransform="translate(-.5 .5)" y1="4.5" x1="55"/>
  <linearGradient id="linearGradient3699" y2="43" xlink:href="#linearGradient4222-4" gradientUnits="userSpaceOnUse" x2="75" gradientTransform="translate(0 .5)" y1="5" x1="63"/>
  <linearGradient id="linearGradient3759" y2="23" xlink:href="#linearGradient4222-4" gradientUnits="userSpaceOnUse" x2="89" y1="16" x1="88"/>
  <linearGradient id="linearGradient3792" y2="43" xlink:href="#linearGradient3242-187-536" gradientUnits="userSpaceOnUse" x2="68" gradientTransform="translate(-.5 .5)" y1="4" x1="58"/>
  <linearGradient id="linearGradient3794" y2="4" xlink:href="#linearGradient2490-182-124" gradientUnits="userSpaceOnUse" x2="53" gradientTransform="translate(-.5 .5)" y1="43" x1="59"/>
  <linearGradient id="linearGradient3798" y2="28.614" xlink:href="#linearGradient3242-187-536" gradientUnits="userSpaceOnUse" x2="23.878" gradientTransform="matrix(.89889 0 0 .89347 64.537 -1.566)" y1="18.541" x1="22.765"/>
  <linearGradient id="linearGradient3800" y2="15" xlink:href="#linearGradient2490-182-124" gradientUnits="userSpaceOnUse" x2="91" y1="23" x1="92"/>
  <linearGradient id="linearGradient3810" y2="31" xlink:href="#linearGradient4222-4" gradientUnits="userSpaceOnUse" x2="90" gradientTransform="translate(-1.0004)" y1="23" x1="88"/>
  <linearGradient id="linearGradient3814" y2="27.495" xlink:href="#linearGradient3242-187-536" gradientUnits="userSpaceOnUse" x2="23.878" gradientTransform="matrix(.89889 0 0 .89347 69.536 6.434)" y1="18.541" x1="22.765"/>
  <linearGradient id="linearGradient3816" y2="23" xlink:href="#linearGradient2490-182-124" gradientUnits="userSpaceOnUse" x2="86" gradientTransform="translate(-1.0004)" y1="31" x1="87"/>
  <linearGradient id="linearGradient3820" y2="44" gradientUnits="userSpaceOnUse" x2="85" y1="5" x1="69">
   <stop id="stop3729" style="stop-color:#63cdba" offset="0"/>
   <stop id="stop3731" style="stop-color:#3baf9a" offset="1"/>
  </linearGradient>
  <linearGradient id="linearGradient3822" y2="43" gradientUnits="userSpaceOnUse" x2="75" gradientTransform="translate(0 .5)" y1="5" x1="63">
   <stop id="stop3737" style="stop-color:#51c7b2" offset="0"/>
   <stop id="stop3739" style="stop-color:#2d8776" offset="1"/>
  </linearGradient>
 </defs>
 <g id="g3939" transform="translate(-49)">
  <g id="g3906">
   <g id="g2929" transform="translate(24,24)">
    <path id="path2931" style="opacity:.3;fill:url(#radialGradient2939)" d="m73 19.75a23.5 2.25 0 0 1 -47 0 23.5 2.25 0 1 1 47 0z"/>
   </g>
  </g>
  <g id="g3930" transform="translate(.99955)">
   <path id="path2262-4" style="stroke-linejoin:round;fill-rule:evenodd;stroke:url(#linearGradient3800);fill:url(#linearGradient3798)" d="m95.5 16.495v5.005h-16l-2.9996-5.005h19z"/>
   <path id="path3741" style="stroke-linejoin:round;fill-rule:evenodd;stroke:url(#linearGradient3816);fill:url(#linearGradient3814)" d="m95.5 24.495v5.005h-11l-2.9996-5.005h14z"/>
   <path id="path3796" style="opacity:0.24;stroke-linejoin:round;stroke:url(#linearGradient3759);fill:none" d="m78.375 17.562 1.7188 2.875h14.344v-2.875h-16.062z"/>
   <path id="path3812" style="opacity:0.24;stroke-linejoin:round;stroke:url(#linearGradient3810);fill:none" d="m83.312 25.531 1.75 2.9375h9.438v-2.9375h-11.188z"/>
  </g>
  <path id="path2905" style="stroke-linejoin:round;stroke:url(#linearGradient3822);stroke-width:1px;fill:url(#linearGradient3820)" d="m90 43.5h-6l-9-14-8 14h-6l11.5-19-11.5-19h6l23 38z"/>
  <path id="path2909" style="stroke-linejoin:round;stroke:url(#linearGradient3794);stroke-width:1px;fill:url(#linearGradient3792)" d="m56.5 43.5h-6l11.5-19-11.5-19h6l11.5 19-11.5 19z"/>
  <path id="path3790" style="opacity:0.24;stroke-linejoin:round;stroke:url(#linearGradient3691);stroke-width:1px;fill:none" d="m52.219 6.4688 10.625 17.531a0.97258 0.97258 0 0 1 0 1l-10.625 17.531h3.7188l10.906-18.031-10.906-18.031h-3.7188z"/>
  <path id="path3818" style="opacity:0.24;stroke-linejoin:round;stroke:url(#linearGradient3699);stroke-width:1px;fill:none" d="m62.812 6.5312 10.562 17.438a1.0372 1.0372 0 0 1 0 1.0625l-10.562 17.438h3.5938l7.688-13.47a1.0372 1.0372 0 0 1 1.781 -0.062l8.6875 13.531h3.625l-21.75-35.938h-3.625z"/>
 </g>
</svg>

<?xml version="1.0" encoding="UTF-8" standalone="no"?>
<!-- Created with Inkscape (http://www.inkscape.org/) -->

<svg
   xmlns:dc="http://purl.org/dc/elements/1.1/"
   xmlns:cc="http://creativecommons.org/ns#"
   xmlns:rdf="http://www.w3.org/1999/02/22-rdf-syntax-ns#"
   xmlns:svg="http://www.w3.org/2000/svg"
   xmlns="http://www.w3.org/2000/svg"
   xmlns:xlink="http://www.w3.org/1999/xlink"
   xmlns:inkscape="http://www.inkscape.org/namespaces/inkscape"
   version="1.0"
   width="48"
   height="48"
   id="svg2">
  <metadata
     id="metadata49">
    <rdf:RDF>
      <cc:Work
         rdf:about="">
        <dc:format>image/svg+xml</dc:format>
        <dc:type
           rdf:resource="http://purl.org/dc/dcmitype/StillImage" />
      </cc:Work>
    </rdf:RDF>
  </metadata>
  <defs
     id="defs4">
    <linearGradient
       id="linearGradient4222-4">
      <stop
         id="stop4224-0"
         style="stop-color:#ffffff;stop-opacity:1"
         offset="0" />
      <stop
         id="stop4226-5"
         style="stop-color:#ffffff;stop-opacity:0"
         offset="1" />
    </linearGradient>
    <radialGradient
       cx="23.070999"
       cy="35.126999"
       r="10.319"
       id="radialGradient2939"
       gradientUnits="userSpaceOnUse"
       gradientTransform="matrix(2.0833,0.012268,-0.018708,0.2071,2.3491,12.233)">
      <stop
         id="stop3763"
         style="stop-color:#000000;stop-opacity:0.39216"
         offset="0" />
      <stop
         id="stop3765"
         style="stop-color:#000000;stop-opacity:0.31373"
         offset="0.67457002" />
      <stop
         id="stop3767"
         style="stop-color:#000000;stop-opacity:0"
         offset="1" />
    </radialGradient>
    <linearGradient
       id="linearGradient3242-187-536">
      <stop
         id="stop2780"
         style="stop-color:#6396cd;stop-opacity:1"
         offset="0" />
      <stop
         id="stop2782"
         style="stop-color:#3b7caf;stop-opacity:1"
         offset="0.66093999" />
      <stop
         id="stop2784"
         style="stop-color:#194c70;stop-opacity:1"
         offset="1" />
    </linearGradient>
    <linearGradient
       id="linearGradient2490-182-124">
      <stop
         id="stop2788"
         style="stop-color:#1f4b6a;stop-opacity:1"
         offset="0" />
      <stop
         id="stop2790"
         style="stop-color:#4083c2;stop-opacity:1"
         offset="1" />
    </linearGradient>
    <linearGradient
       x1="55"
       y1="4.5"
       x2="59"
       y2="43.5"
       id="linearGradient3691"
       xlink:href="#linearGradient4222-4"
       gradientUnits="userSpaceOnUse"
       gradientTransform="translate(-0.5,0.5)" />
    <linearGradient
       x1="63"
       y1="5"
       x2="75"
       y2="43"
       id="linearGradient3699"
       xlink:href="#linearGradient4222-4"
       gradientUnits="userSpaceOnUse"
       gradientTransform="translate(0,0.5)" />
    <linearGradient
       x1="88"
       y1="16"
       x2="89"
       y2="23"
       id="linearGradient3759"
       xlink:href="#linearGradient4222-4"
       gradientUnits="userSpaceOnUse" />
    <linearGradient
       x1="58"
       y1="4"
       x2="68"
       y2="43"
       id="linearGradient3792"
       xlink:href="#linearGradient3242-187-536"
       gradientUnits="userSpaceOnUse"
       gradientTransform="translate(-0.5,0.5)" />
    <linearGradient
       x1="59"
       y1="43"
       x2="53"
       y2="4"
       id="linearGradient3794"
       xlink:href="#linearGradient2490-182-124"
       gradientUnits="userSpaceOnUse"
       gradientTransform="translate(-0.5,0.5)" />
    <linearGradient
       x1="22.764999"
       y1="18.541"
       x2="23.878"
       y2="28.614"
       id="linearGradient3798"
       xlink:href="#linearGradient3242-187-536"
       gradientUnits="userSpaceOnUse"
       gradientTransform="matrix(0.89889,0,0,0.89347,64.537,-1.566)" />
    <linearGradient
       x1="92"
       y1="23"
       x2="91"
       y2="15"
       id="linearGradient3800"
       xlink:href="#linearGradient2490-182-124"
       gradientUnits="userSpaceOnUse" />
    <linearGradient
       x1="88"
       y1="23"
       x2="90"
       y2="31"
       id="linearGradient3810"
       xlink:href="#linearGradient4222-4"
       gradientUnits="userSpaceOnUse"
       gradientTransform="translate(-1.0004,0)" />
    <linearGradient
       x1="22.764999"
       y1="18.541"
       x2="23.878"
       y2="27.495001"
       id="linearGradient3814"
       xlink:href="#linearGradient3242-187-536"
       gradientUnits="userSpaceOnUse"
       gradientTransform="matrix(0.89889,0,0,0.89347,69.536,6.434)" />
    <linearGradient
       x1="87"
       y1="31"
       x2="86"
       y2="23"
       id="linearGradient3816"
       xlink:href="#linearGradient2490-182-124"
       gradientUnits="userSpaceOnUse"
       gradientTransform="translate(-1.0004,0)" />
    <linearGradient
       x1="69"
       y1="5"
       x2="85"
       y2="44"
       id="linearGradient3820"
       gradientUnits="userSpaceOnUse">
      <stop
         id="stop3729"
         style="stop-color:#63cdba;stop-opacity:1"
         offset="0" />
      <stop
         id="stop3731"
         style="stop-color:#3baf9a;stop-opacity:1"
         offset="1" />
    </linearGradient>
    <linearGradient
       x1="63"
       y1="5"
       x2="75"
       y2="43"
       id="linearGradient3822"
       gradientUnits="userSpaceOnUse"
       gradientTransform="translate(0,0.5)">
      <stop
         id="stop3737"
         style="stop-color:#51c7b2;stop-opacity:1"
         offset="0" />
      <stop
         id="stop3739"
         style="stop-color:#2d8776;stop-opacity:1"
         offset="1" />
    </linearGradient>
  </defs>
  <g
     transform="translate(-49,0)"
     id="g3939">
    <g
       id="g3906">
      <g
         transform="translate(24,24)"
         id="g2929">
        <path
           d="m 73,19.75 a 23.5,2.25 0 0 1 -47,0 23.5,2.25 0 1 1 47,0 z"
           inkscape:connector-curvature="0"
           id="path2931"
           style="opacity:0.3;fill:url(#radialGradient2939)" />
      </g>
    </g>
    <g
       transform="translate(0.99955,0)"
       id="g3930">
      <path
         d="M 95.5,16.495 V 21.5 h -16 l -2.9996,-5.005 h 19 z"
         inkscape:connector-curvature="0"
         id="path2262-4"
         style="fill:url(#linearGradient3798);fill-rule:evenodd;stroke:url(#linearGradient3800);stroke-linejoin:round" />
      <path
         d="M 95.5,24.495 V 29.5 h -11 l -2.9996,-5.005 h 14 z"
         inkscape:connector-curvature="0"
         id="path3741"
         style="fill:url(#linearGradient3814);fill-rule:evenodd;stroke:url(#linearGradient3816);stroke-linejoin:round" />
      <path
         d="m 78.375,17.562 1.7188,2.875 h 14.344 v -2.875 h -16.062 z"
         inkscape:connector-curvature="0"
         id="path3796"
         style="opacity:0.23999999;fill:none;stroke:url(#linearGradient3759);stroke-linejoin:round" />
      <path
         d="m 83.312,25.531 1.75,2.9375 H 94.5 V 25.531 H 83.312 z"
         inkscape:connector-curvature="0"
         id="path3812"
         style="opacity:0.23999999;fill:none;stroke:url(#linearGradient3810);stroke-linejoin:round" />
    </g>
    <path
       d="m 90,43.5 h -6 l -9,-14 -8,14 H 61 L 72.5,24.5 61,5.5 h 6 l 23,38 z"
       inkscape:connector-curvature="0"
       id="path2905"
       style="fill:url(#linearGradient3820);stroke:url(#linearGradient3822);stroke-width:1px;stroke-linejoin:round" />
    <path
       d="m 56.5,43.5 h -6 L 62,24.5 50.5,5.5 h 6 l 11.5,19 -11.5,19 z"
       inkscape:connector-curvature="0"
       id="path2909"
       style="fill:url(#linearGradient3792);stroke:url(#linearGradient3794);stroke-width:1px;stroke-linejoin:round" />
    <path
       d="m 52.219,6.4688 10.625,17.531 a 0.97258,0.97258 0 0 1 0,1 l -10.625,17.531 h 3.7188 L 66.8438,24.4998 55.9378,6.4688 H 52.219 z"
       inkscape:connector-curvature="0"
       id="path3790"
       style="opacity:0.23999999;fill:none;stroke:url(#linearGradient3691);stroke-width:1px;stroke-linejoin:round" />
    <path
       d="m 62.812,6.5312 10.562,17.438 a 1.0372,1.0372 0 0 1 0,1.0625 l -10.562,17.438 h 3.5938 l 7.688,-13.47 a 1.0372,1.0372 0 0 1 1.781,-0.062 l 8.6875,13.531 h 3.625 l -21.75,-35.938 h -3.625 z"
       inkscape:connector-curvature="0"
       id="path3818"
       style="opacity:0.23999999;fill:none;stroke:url(#linearGradient3699);stroke-width:1px;stroke-linejoin:round" />
  </g>
</svg>
